X: 50
M: none
L: 1/8
K: D
uB | AGF(uD EF)vG2 | vA(uGFG) (v(3Acd) F2 | vA(ud FD) EFG(uB | AG)FG Ad-d2 :|
|: A | defa e(udcA) | defa f(udg2) | fdd(uf ed)cA | B(uGFG) Aud- d :|
da usual Shetlan' reel.  Dey were words at ee time.  I mind ee
verse an it says:
		If I hed anidder sixpence
		I wid buy anidder gill
		I wid axe da fiddler te play
		"Da boannie lass o' Bekka Hill".


